Resources/Icons/PCGEx_Pin_IN_Filter.svg

<?xml version="1.0" encoding="UTF-8"?>
<svg xmlns="http://www.w3.org/2000/svg" viewBox="0 0 100 100">
  <defs>
    <style>
      .cls-1 {
        fill: #ffa627;
      }

      .cls-2 {
        opacity: .5;
      }

      .cls-3 {
        opacity: .7;
      }
    </style>
  </defs>
  <g id="Layer_25" data-name="Layer 25">
    <g class="cls-2">
      <path d="M49.6,43.75l15.14,17.54v-.32l-15.8-18.3c.15.38.36.74.66,1.08ZM93.11,38.19c.38,1.18.2,2.54-.74,3.64l-16.81,19.47v11.79c0,2.99-2.42,5.41-5.41,5.41-1.39,0-2.65-.53-3.61-1.39.82,1.94,2.75,3.31,4.99,3.31,2.99,0,5.41-2.42,5.41-5.41v-11.79l16.81-19.47c1.56-1.8,1.03-4.33-.64-5.56ZM70.15,76.58c1.93,0,3.49-1.57,3.49-3.49s-1.57-3.49-3.49-3.49-3.49,1.57-3.49,3.49,1.57,3.49,3.49,3.49Z"/>
      <path class="cls-1" d="M93.11,38.19c-.47-1.47-1.81-2.65-3.62-2.65h-38.4c-3.25,0-5,3.82-2.88,6.28l.72.84,15.8,18.3v12.13c0,1.6.7,3.04,1.8,4.03.96.86,2.22,1.39,3.61,1.39,2.99,0,5.41-2.42,5.41-5.41v-11.79l16.81-19.47c.95-1.1,1.12-2.46.74-3.64ZM66.66,73.09c0-1.93,1.57-3.49,3.49-3.49s3.49,1.57,3.49,3.49-1.57,3.49-3.49,3.49-3.49-1.57-3.49-3.49Z"/>
    </g>
  </g>
  <g id="icons_50" data-name="icons 50">
    <g class="cls-3">
      <path d="M32.25,37.19l18.92,21.92v-.4l-19.75-22.87c.19.47.46.93.82,1.36ZM86.65,30.24c.47,1.47.26,3.18-.93,4.55l-21.01,24.34v14.73c0,3.74-3.03,6.77-6.77,6.77-1.73,0-3.31-.66-4.51-1.73,1.03,2.43,3.43,4.13,6.23,4.13,3.74,0,6.77-3.03,6.77-6.77v-14.73l21.01-24.34c1.95-2.25,1.29-5.41-.8-6.95ZM57.94,78.23c2.41,0,4.37-1.96,4.37-4.37s-1.96-4.37-4.37-4.37-4.37,1.96-4.37,4.37,1.96,4.37,4.37,4.37Z"/>
      <path class="cls-1" d="M86.65,30.24c-.59-1.84-2.27-3.31-4.52-3.31h-48c-4.07,0-6.25,4.78-3.6,7.86l.9,1.04,19.75,22.87v15.16c0,2,.87,3.79,2.26,5.03,1.2,1.07,2.77,1.73,4.51,1.73,3.74,0,6.77-3.03,6.77-6.77v-14.73l21.01-24.34c1.18-1.37,1.4-3.07.93-4.55ZM53.58,73.87c0-2.41,1.96-4.37,4.37-4.37s4.37,1.96,4.37,4.37-1.96,4.37-4.37,4.37-4.37-1.96-4.37-4.37Z"/>
    </g>
  </g>
  <g id="Layer_5" data-name="Layer 5">
    <g>
      <path d="M9.57,28.74l23.65,27.4v-.5L8.54,27.05c.24.59.57,1.16,1.03,1.69ZM77.56,20.06c.59,1.84.32,3.97-1.16,5.68l-26.27,30.43v18.42c0,4.67-3.79,8.46-8.46,8.46-2.17,0-4.14-.82-5.64-2.17,1.28,3.04,4.29,5.17,7.79,5.17,4.67,0,8.46-3.79,8.46-8.46v-18.42l26.27-30.43c2.43-2.82,1.61-6.77-1-8.68ZM41.68,80.05c3.01,0,5.46-2.45,5.46-5.46s-2.45-5.46-5.46-5.46-5.46,2.45-5.46,5.46,2.45,5.46,5.46,5.46Z"/>
      <path class="cls-1" d="M77.56,20.06c-.74-2.3-2.83-4.14-5.65-4.14H11.91c-5.08,0-7.82,5.97-4.5,9.82l1.13,1.31,24.68,28.59v18.95c0,2.5,1.09,4.74,2.82,6.29,1.5,1.34,3.47,2.17,5.64,2.17,4.67,0,8.46-3.79,8.46-8.46v-18.42l26.27-30.43c1.48-1.71,1.75-3.84,1.16-5.68ZM36.22,74.59c0-3.01,2.45-5.46,5.46-5.46s5.46,2.45,5.46,5.46-2.45,5.46-5.46,5.46-5.46-2.45-5.46-5.46Z"/>
    </g>
  </g>
</svg>

<svg xmlns="http://www.w3.org/2000/svg" viewBox="0 0 100 100"><defs><style>.cls-1{opacity:0.5;}.cls-2{fill:#ffa627;}.cls-3{opacity:0.7;}</style></defs><g id="Layer_25" data-name="Layer 25"><g class="cls-1"><path d="M49.6,43.75,64.74,61.29V61l-15.8-18.3A3.66,3.66,0,0,0,49.6,43.75Zm43.51-5.56a3.73,3.73,0,0,1-.74,3.64L75.56,61.3V73.09a5.41,5.41,0,0,1-9,4A5.42,5.42,0,0,0,76.94,75V63.22L93.75,43.75A3.8,3.8,0,0,0,93.11,38.19Zm-23,38.39a3.49,3.49,0,1,0-3.49-3.49A3.49,3.49,0,0,0,70.15,76.58Z"/><path class="cls-2" d="M93.11,38.19a3.76,3.76,0,0,0-3.61-2.65H51.1a3.8,3.8,0,0,0-2.88,6.29l.72.83L64.74,61V73.09a5.41,5.41,0,1,0,10.82,0V61.3L92.37,41.83A3.73,3.73,0,0,0,93.11,38.19ZM66.66,73.09a3.49,3.49,0,1,1,3.49,3.49A3.49,3.49,0,0,1,66.66,73.09Z"/></g></g><g id="icons_50" data-name="icons 50"><g class="cls-3"><path d="M32.25,37.19,51.18,59.11v-.4L31.43,35.83A4.57,4.57,0,0,0,32.25,37.19Zm54.4-6.95a4.69,4.69,0,0,1-.93,4.55l-21,24.34V73.87a6.76,6.76,0,0,1-11.28,5,6.77,6.77,0,0,0,13-2.63V61.53l21-24.34A4.76,4.76,0,0,0,86.65,30.24Zm-28.71,48a4.37,4.37,0,1,0-4.36-4.36A4.37,4.37,0,0,0,57.94,78.23Z"/><path class="cls-2" d="M86.65,30.24a4.72,4.72,0,0,0-4.53-3.31h-48a4.75,4.75,0,0,0-3.59,7.86l.9,1L51.18,58.71V73.87a6.77,6.77,0,0,0,13.53,0V59.13l21-24.34A4.69,4.69,0,0,0,86.65,30.24ZM53.58,73.87a4.37,4.37,0,1,1,4.36,4.36A4.37,4.37,0,0,1,53.58,73.87Z"/></g></g><g id="Layer_5" data-name="Layer 5"><path d="M9.57,28.74l23.65,27.4v-.5L8.54,27.05A6,6,0,0,0,9.57,28.74Zm68-8.68a5.81,5.81,0,0,1-1.16,5.68L50.14,56.17V74.59A8.45,8.45,0,0,1,36,80.88a8.46,8.46,0,0,0,16.25-3.29V59.17L78.56,28.74A5.94,5.94,0,0,0,77.56,20.06Zm-35.88,60a5.46,5.46,0,1,0-5.46-5.46A5.47,5.47,0,0,0,41.68,80.05Z"/><path class="cls-2" d="M77.56,20.06a5.88,5.88,0,0,0-5.65-4.14h-60a5.94,5.94,0,0,0-4.5,9.82l1.13,1.31L33.22,55.64v19a8.46,8.46,0,0,0,16.92,0V56.17L76.4,25.74A5.81,5.81,0,0,0,77.56,20.06ZM36.22,74.59a5.46,5.46,0,1,1,5.46,5.46A5.47,5.47,0,0,1,36.22,74.59Z"/></g></svg>
